src/assets/outline/LanguageSquare.svg

<svg width="24" height="24" viewBox="0 0 24 24"  xmlns="http://www.w3.org/2000/svg">
<path d="M16.9897 9.70996H7.00977C6.59977 9.70996 6.25977 9.36996 6.25977 8.95996C6.25977 8.54996 6.59977 8.20996 7.00977 8.20996H16.9897C17.3997 8.20996 17.7397 8.54996 17.7397 8.95996C17.7397 9.36996 17.3997 9.70996 16.9897 9.70996Z" />
<path d="M12 9.71002C11.59 9.71002 11.25 9.37002 11.25 8.96002V7.28003C11.25 6.87003 11.59 6.53003 12 6.53003C12.41 6.53003 12.75 6.87003 12.75 7.28003V8.96002C12.75 9.37002 12.41 9.71002 12 9.71002Z" />
<path d="M7 17.4699C6.59 17.4699 6.25 17.1299 6.25 16.7199C6.25 16.3099 6.59 15.9699 7 15.9699C10.72 15.9699 13.75 12.8199 13.75 8.93994C13.75 8.52994 14.09 8.18994 14.5 8.18994C14.91 8.18994 15.25 8.52994 15.25 8.93994C15.25 13.6499 11.55 17.4699 7 17.4699Z" />
<path d="M17.0002 17.47C15.0302 17.47 13.2002 16.49 11.8602 14.7C11.6102 14.37 11.6802 13.9 12.0102 13.65C12.3402 13.4 12.8102 13.47 13.0602 13.8C14.1202 15.2 15.5202 15.97 17.0102 15.97C17.4202 15.97 17.7602 16.31 17.7602 16.72C17.7602 17.13 17.4102 17.47 17.0002 17.47Z" />
<path d="M15 22.75H9C3.57 22.75 1.25 20.43 1.25 15V9C1.25 3.57 3.57 1.25 9 1.25H15C20.43 1.25 22.75 3.57 22.75 9V15C22.75 20.43 20.43 22.75 15 22.75ZM9 2.75C4.39 2.75 2.75 4.39 2.75 9V15C2.75 19.61 4.39 21.25 9 21.25H15C19.61 21.25 21.25 19.61 21.25 15V9C21.25 4.39 19.61 2.75 15 2.75H9Z" />
</svg>

<?xml version="1.0" encoding="UTF-8"?>
<svg width="24" height="24" viewBox="0 0 24 24" xmlns="http://www.w3.org/2000/svg">
 <path d="m16.99 9.71h-9.9799c-0.41 0-0.75-0.34-0.75-0.75s0.34-0.75 0.75-0.75h9.9799c0.41 0 0.75 0.34 0.75 0.75s-0.34 0.75-0.75 0.75z"/>
 <path d="m12 9.71c-0.41 0-0.75-0.34-0.75-0.75v-1.68c0-0.41 0.34-0.75 0.75-0.75s0.75 0.34 0.75 0.75v1.68c0 0.41-0.34 0.75-0.75 0.75z"/>
 <path d="m7 17.47c-0.41 0-0.75-0.34-0.75-0.75s0.34-0.75 0.75-0.75c3.72 0 6.75-3.15 6.75-7.03 0-0.41 0.34-0.75 0.75-0.75s0.75 0.34 0.75 0.75c0 4.71-3.7 8.53-8.25 8.53z"/>
 <path d="m17 17.47c-1.97 0-3.8-0.98-5.14-2.77-0.25-0.33-0.18-0.8 0.15-1.05s0.8-0.18 1.05 0.15c1.06 1.4 2.46 2.17 3.95 2.17 0.41 0 0.75 0.34 0.75 0.75s-0.35 0.75-0.76 0.75z"/>
 <path d="m15 22.75h-6c-5.43 0-7.75-2.32-7.75-7.75v-6c0-5.43 2.32-7.75 7.75-7.75h6c5.43 0 7.75 2.32 7.75 7.75v6c0 5.43-2.32 7.75-7.75 7.75zm-6-20c-4.61 0-6.25 1.64-6.25 6.25v6c0 4.61 1.64 6.25 6.25 6.25h6c4.61 0 6.25-1.64 6.25-6.25v-6c0-4.61-1.64-6.25-6.25-6.25h-6z"/>
</svg>
